dist/images/icons/popup-arrow.svg

<svg width="60" height="60" viewBox="0 0 60 60" fill="none" xmlns="http://www.w3.org/2000/svg">
<rect width="60" height="60" rx="6" fill="white" fill-opacity="0.8"/>
<path d="M21.0383 31.0149L37.0516 45.6079C37.5771 46.1307 38.4293 46.1307 38.9548 45.6079C39.4802 45.0851 39.4802 44.2369 38.9548 43.7141L23.907 30L38.9534 16.2859C39.4789 15.7631 39.4789 14.9148 38.9534 14.3921C38.428 13.8693 37.5758 13.8693 37.0503 14.3921L21.037 28.9851C20.7569 29.2638 20.6369 29.6332 20.6556 29.9986C20.6381 30.3654 20.7582 30.7348 21.0383 31.0149Z" fill="#505050"/>
</svg>

<svg width="60" height="60" fill="none" xmlns="http://www.w3.org/2000/svg"><rect width="60" height="60" rx="6" fill="#fff" fill-opacity=".8"/><path d="M21.038 31.015l16.014 14.593a1.35 1.35 0 001.903 0 1.335 1.335 0 000-1.894L23.907 30l15.046-13.714a1.335 1.335 0 000-1.894 1.35 1.35 0 00-1.903 0L21.037 28.985c-.28.279-.4.648-.381 1.014a1.33 1.33 0 00.382 1.016z" fill="#505050"/></svg>
